resources/svg/typescript.svg

<svg width="15" height="15" viewBox="0 0 15 15" fill="none" xmlns="http://www.w3.org/2000/svg">
<path fill-rule="evenodd" clip-rule="evenodd" d="M0 0H15V15H0V0ZM10 6C8.89543 6 8 6.89543 8 8C8 9.10457 8.89543 10 10 10H11C11.5523 10 12 10.4477 12 11C12 11.5523 11.5523 12 11 12H10C9.44772 12 9 11.5523 9 11H8C8 12.1046 8.89543 13 10 13H11C12.1046 13 13 12.1046 13 11C13 9.89543 12.1046 9 11 9H10C9.44772 9 9 8.55228 9 8C9 7.44772 9.44772 7 10 7H11.1667C11.6269 7 12 7.3731 12 7.83333V8H13V7.83333C13 6.82081 12.1792 6 11.1667 6H10ZM3 6H8V7H6V13H5V7H3V6Z" fill="black"/>
</svg>

<svg viewBox="0 0 15 15" fill="none" xmlns="http://www.w3.org/2000/svg" fill="currentColor"><path fill-rule="evenodd" clip-rule="evenodd" d="M0 0h15v15H0V0zm10 6a2 2 0 100 4h1a1 1 0 110 2h-1a1 1 0 01-1-1H8a2 2 0 002 2h1a2 2 0 100-4h-1a1 1 0 010-2h1.167c.46 0 .833.373.833.833V8h1v-.167C13 6.821 12.18 6 11.167 6H10zM3 6h5v1H6v6H5V7H3V6z" fill="currentColor"/></svg>
